X: 8
T: Da pacem domine III
N: Derived from Ano2006-Da_pacem_domine_III--Cappella_Sistina_15.krn
C: Anonymous
%%abc-version 2.0
%%abcx-abcm2ps-target-version 5.9.1 (29 Sep 2008)
%%abc-creator hum2abc beta
%%abcx-conversion-date 2019/02/16 20:18:26
%%abc-edited-by Jesse Rodin
%%abc-edited-by Jesse Rodin 8/15/2013
%%abcx-initial-encoding-date 2013/08/15/
%%humdrum-veritas 2038753093
%%humdrum-veritas-data 4189335494
%%linebreak <none>
%%barnumbers 0
L: 1/4
M: 2/1
Q: 1/2=120
%%staves [1 2 3 4]
V: 1 clef=treble
V: 2 clef=treble-8
V: 3 clef=treble-8
V: 4 clef=bass
K: F
[V:1] z8 | 
[V:2] z8 | 
[V:3] z8 | 
[V:4] G,4F,4 | 
[V:1] z8 | 
[V:2] G4F4 | 
[V:3] z8 | 
[V:4] G,4z4 | 
[V:1] z8 | 
[V:2] G4z4 | 
[V:3] G4F4 | 
[V:4] B,4C4 | 
[V:1] G4F4 | 
[V:2] B4c4 | 
[V:3] G4z4 | 
[V:4] B,3CA,4 | 
[V:1] G4z4 | 
[V:2] B2d2e2f2 | 
[V:3] B4c4 | 
[V:4] z2G,4F,2 | 
[V:1] B4c4 | 
[V:2] d2g3^f^fe | 
[V:3] B2d4c2 | 
[V:4] G,2B,2A,4 | 
[V:1] B4z2d2- | 
[V:2] g3fd4- | 
[V:3] d4B4 | 
[V:4] G,4z2G,,2- | 
[V:1] dcBABAGF | 
[V:2] d4z2G2 | 
[V:3] z2d3cBA | 
[V:4] G,,A,,B,,C,D,2_E,2- | 
[V:1] G2F4G2 | 
[V:2] Bcd4G2 | 
[V:3] G2A3FB2 | 
[V:4] E,2D,4_E,2 | 
[V:1] F2B3AAG | 
[V:2] d2e2f4 | 
[V:3] A2B2c4 | 
[V:4] F,2G,2F,4 | 
[V:1] B8- | 
[V:2] d8 | 
[V:3] B8- | 
[V:4] B,,8- | 
[V:1] B4z4 | 
[V:2] z8 | 
[V:3] B4z4 | 
[V:4] B,,4A,,4 | 
[V:1] z8 | 
[V:2] z4A4 | 
[V:3] z8 | 
[V:4] B,,4C,4 | 
[V:1] z4A4 | 
[V:2] B4c4 | 
[V:3] z8 | 
[V:4] B,,4A,,4 | 
[V:1] B4c4 | 
[V:2] B4A4 | 
[V:3] z4A4 | 
[V:4] z2G,3F,F,E, | 
[V:1] B4A4- | 
[V:2] z2d2f4 | 
[V:3] B4c4 | 
[V:4] G,4F,4 | 
[V:1] A2G4F2 | 
[V:2] e2d3cBA | 
[V:3] B4A4 | 
[V:4] G,4D,4 | 
[V:1] G2A2D2d2- | 
[V:2] B2A2G2A2- | 
[V:3] G2F2G2D2- | 
[V:4] z2D,3E,F,2- | 
[V:1] dcB4AG | 
[V:2] A2F2f3e | 
[V:3] D2d4cB | 
[V:4] F,2B,,4C,2 | 
[V:1] F2G3^FFE | 
[V:2] d2c2d4- | 
[V:3] A2G2A4 | 
[V:4] D,2_E,2D,4 | 
[V:1] G4z2G2- | 
[V:2] d4z2d2- | 
[V:3] G8- | 
[V:4] G,,8 | 
[V:1] GFD4CB, | 
[V:2] dcB4AG | 
[V:3] G8 | 
[V:4] z2G,3F,G,2 | 
[V:1] A,2G,2A,4 | 
[V:2] F2G4^F2 | 
[V:3] z8 | 
[V:4] D,2_E,2D,4 | 
[V:1] G,8 | 
[V:2] G8- | 
[V:3] z8 | 
[V:4] G,,8- | 
[V:1] z4B,4 | 
[V:2] G8 | 
[V:3] z8 | 
[V:4] G,,8 | 
[V:1] A,4G,4 | 
[V:2] z4B4 | 
[V:3] z8 | 
[V:4] z8 | 
[V:1] z2A,2B,4 | 
[V:2] A4G4 | 
[V:3] z8 | 
[V:4] z4B,,4 | 
[V:1] C4D4 | 
[V:2] z2A2B4 | 
[V:3] z4B4 | 
[V:4] A,,4G,,4 | 
[V:1] CDEFG2D2 | 
[V:2] c4d4 | 
[V:3] A4G4 | 
[V:4] z2A,,2B,,4 | 
[V:1] E4D4 | 
[V:2] cdecf2d2 | 
[V:3] z2A2B4 | 
[V:4] C,4D,4 | 
[V:1] z2G4F2 | 
[V:2] e4z2A2- | 
[V:3] c4d4 | 
[V:4] C,D,E,C,F,2D,2 | 
[V:1] G4z2B2- | 
[V:2] A2G2A2B2- | 
[V:3] c4d2e2- | 
[V:4] E,4D,2G,2- | 
[V:1] BAF2G4 | 
[V:2] B2A4G2 | 
[V:3] e2d4^c2 | 
[V:4] G,2F,2E,4 | 
[V:1] F8- | 
[V:2] A8- | 
[V:3] d8- | 
[V:4] D,8 | 
[V:1] F8 | 
[V:2] A4z2A2- | 
[V:3] d8 | 
[V:4] z2D,3E,F,E, | 
[V:1] z8 | 
[V:2] ABcBc3d | 
[V:3] z8 | 
[V:4] F,3G,A,G,A,2- | 
[V:1] z8 | 
[V:2] ede2f2g2- | 
[V:3] z8 | 
[V:4] A,F,G,2A,2B,2- | 
[V:1] z8 | 
[V:2] gfed^c3=B | 
[V:3] z8 | 
[V:4] B,A,G,F,E,4 | 
[V:1] z8 | 
[V:2] d4z4 | 
[V:3] z8 | 
[V:4] D,8 | 
[V:1] z8 | 
[V:2] (3d4d4c4 | 
[V:3] z8 | 
[V:4] z8 | 
[V:1] z8 | 
[V:2] (3:2:5B4B2A2A2G2 | 
[V:3] z8 | 
[V:4] (3D,4D,4C,4 | 
[V:1] z8 | 
[V:2] (3:2:2B4z8 | 
[V:3] (3d4d4c4 | 
[V:4] (3:2:5B,,4B,,2A,,2A,,2G,,2 | 
[V:1] (3d4d4c4 | 
[V:2] (3:2:1f12 | 
[V:3] (3:2:2B8A4 | 
[V:4] (3:2:5B,,2C,2D,2E,2F,4 | 
[V:1] (3:2:5B4B2A2A2G2 | 
[V:2] (3:2:2e4f8 | 
[V:3] (3:2:2B4c8 | 
[V:4] (3:2:2G,4F,8 | 
[V:1] B8- | 
[V:2] d8- | 
[V:3] B8- | 
[V:4] B,,8 | 
[V:1] B4z4 | 
[V:2] d4z4 | 
[V:3] B4z4 | 
[V:4] B,,4A,,4 | 
[V:1] z8 | 
[V:2] B4A4 | 
[V:3] z8 | 
[V:4] B,,4C,4 | 
[V:1] B4A4 | 
[V:2] B4c4 | 
[V:3] z8 | 
[V:4] B,,2G,,2A,,4 | 
[V:1] B4c4 | 
[V:2] B2G2A4 | 
[V:3] B4A4 | 
[V:4] G,,2G,4F,2 | 
[V:1] B2G2A4 | 
[V:2] z2d2f4 | 
[V:3] B4c4 | 
[V:4] G,4F,4 | 
[V:1] G2B4AG | 
[V:2] e2d3Bc2 | 
[V:3] B4G4 | 
[V:4] z2G,4F,E, | 
[V:1] F8 | 
[V:2] d8 | 
[V:3] A8 | 
[V:4] D,8 | 
[V:1] (3:2:2F8G4 | 
[V:2] (3:2:2d8d4- | 
[V:3] (3:2:2A8B4 | 
[V:4] (3:2:2D,8G,,4 | 
[V:1] (3:2:4F6G2A2F2 | 
[V:2] (3d2c2A8 | 
[V:3] (3:2:2A4d8 | 
[V:4] (3:2:4D,6E,2F,2D,2 | 
[V:1] (3:2:4B6c2d2B2 | 
[V:2] (3G4B6A2 | 
[V:3] (3d6c2B4 | 
[V:4] (3:2:4G,6A,2B,2G,2 | 
[V:1] (3:2:4c4B2A4G2 | 
[V:2] (3F4f6e2 | 
[V:3] (3A4c6B2 | 
[V:4] (3:2:2A,4F,8 | 
[V:1] (3:2:4G6^F2F2E2 | 
[V:2] (3:2:4d6c2B2A2 | 
[V:3] (3A2G2A8 | 
[V:4] (3:2:2G,4D,8 | 
[V:1] G8- | 
[V:2] B8 | 
[V:3] G8- | 
[V:4] G,,8- | 
[V:1] G8 |]  
[V:2] d8 |]  
[V:3] G8 |]  
[V:4] G,,8 |]  



